X: 17423
T: Highland Cathedral
R: strathspey
M: 4/4
K: Dmajor
d3 e/f/ ed Ad|e3 f f4|f3 g/a/ gf ed|e3 f A4|
B3 c/d/ dA cd|a3 g f4|e3 f/g/ fd Ad|e3 d d4|
c3 A e3 c/e/|f3 c c3 B|A3 B/c/ B4|c3 d/e/ B4|
c3 A e3 c/e/|f3 c c3 B|A3 B/c/ B3 A|A8||
G>A BA/G/ d3 a|gf eB d2 gf|e2 G2 g3 f/e/|d3 B/d/ ef/g/ a2|
G>A BA/G/ d3 a|gf eB d2 gf|e2 g2 a>g f<d|g8|a8||

